svgs/light/mobile-screen-button.svg

<svg xmlns="http://www.w3.org/2000/svg" viewBox="0 0 384 512"><!-- Font Awesome Pro 6.0.0-alpha2 by @fontawesome - https://fontawesome.com License - https://fontawesome.com/license (Commercial License) --><path d="M192 440C205.312 440 216 429.312 216 416S205.312 392 192 392S168 402.688 168 416S178.688 440 192 440ZM288 0H96C60.654 0 32 28.654 32 64V448C32 483.346 60.654 512 96 512H288C323.346 512 352 483.346 352 448V64C352 28.654 323.346 0 288 0ZM320 448C320 465.645 305.645 480 288 480H96C78.355 480 64 465.645 64 448V352H320V448ZM320 320H64V64C64 46.355 78.355 32 96 32H288C305.645 32 320 46.355 320 64V320Z"/></svg>

<svg xmlns="http://www.w3.org/2000/svg" viewBox="0 0 384 512"><!--! Font Awesome Pro 6.3.0 by @fontawesome - https://fontawesome.com License - https://fontawesome.com/license (Commercial License) Copyright 2023 Fonticons, Inc. --><path d="M192 440c13.31 0 24-10.69 24-24s-10.69-24-24-24S168 402.7 168 416S178.7 440 192 440zM288 0H96c-35.35 0-64 28.65-64 64v384c0 35.35 28.65 64 64 64h192c35.35 0 64-28.65 64-64v-384C352 28.65 323.3 0 288 0zM320 448c0 17.64-14.36 32-32 32H96c-17.64 0-32-14.36-32-32v-96h256V448zM320 320H64V64c0-17.64 14.36-32 32-32h192c17.64 0 32 14.36 32 32V320z"/></svg>
